svgs/duotone/computer-mouse.svg

<svg xmlns="http://www.w3.org/2000/svg" viewBox="0 0 384 512"><!-- Font Awesome Pro 6.0.0-alpha2 by @fontawesome - https://fontawesome.com License - https://fontawesome.com/license (Commercial License) --><defs><style>.fa-secondary{opacity:.4}</style></defs><path d="M176 0H160C71.625 0 0 71.625 0 160V192H176V0ZM0 352C0 440.375 71.625 512 160 512H224C312.375 512 384 440.375 384 352V224H0V352ZM224 0H208V192H384V160C384 71.625 312.375 0 224 0Z" class="fa-secondary"/><path d="M384 192V224H0V192H176V0H208V192H384Z" class="fa-primary"/></svg>

<svg xmlns="http://www.w3.org/2000/svg" viewBox="0 0 384 512"><!--! Font Awesome Pro 6.3.0 by @fontawesome - https://fontawesome.com License - https://fontawesome.com/license (Commercial License) Copyright 2023 Fonticons, Inc. --><defs><style>.fa-secondary{opacity:.4}</style></defs><path class="fa-primary" d="M384 192v32H0V192h176V0h32v192H384z"/><path class="fa-secondary" d="M176 0H160C71.63 0 0 71.63 0 160v32h176V0zM0 352c0 88.38 71.63 160 160 160h64c88.38 0 160-71.63 160-160V224H0V352zM224 0h-16v192H384V160C384 71.63 312.4 0 224 0z"/></svg>
